apps/www/public/images/logos/publicity/tempo.svg

<svg width="191" height="60" viewBox="0 0 191 60" fill="none" xmlns="http://www.w3.org/2000/svg">
<g clip-path="url(#clip0_2801_887)">
<path fill-rule="evenodd" clip-rule="evenodd" d="M19.4594 8.27417C14.6598 8.27417 10.769 12.165 10.769 16.9645V43.0356C10.769 47.8351 14.6598 51.7259 19.4594 51.7259H45.5305C50.33 51.7259 54.2208 47.8351 54.2208 43.0356V16.9645C54.2208 12.165 50.33 8.27417 45.5305 8.27417H19.4594ZM43.544 21.2063L45.5305 18.4129H19.4594L21.446 21.2063H30.9888L30.9679 43.6284L32.3866 45.4907L33.8053 43.6284L33.8261 21.2063H43.544ZM27.6587 38.8973L30.0231 41.6907V22.1374H22.1085L23.7641 24.4652H27.6688L27.6587 38.8973ZM34.7519 41.6907L37.1071 38.8973V24.4652H41.2263L42.8818 22.1374H34.7519V41.6907Z" fill="#7E7E7E"/>
<path d="M73.7708 42.6011V21.0803H65.7896V17.6598H85.4932V21.0803H77.512V42.6011H73.7708Z" fill="#7E7E7E"/>
<path d="M93.8157 42.9217C88.186 42.9217 84.5161 38.7886 84.5161 33.444C84.5161 28.0282 88.2217 23.9307 93.78 23.9307C99.1605 23.9307 102.545 28.1707 102.545 33.0164V34.6911H88.1148C88.578 38.1828 90.9296 39.715 93.8157 39.715C96.7374 39.715 98.626 37.9334 99.1961 36.3301L101.94 37.7909C101.156 39.8218 98.6617 42.9217 93.8157 42.9217ZM88.2217 31.6981H98.8398C98.8042 29.4178 96.8799 27.0661 93.7444 27.0661C91.0365 27.0661 88.8274 28.6695 88.2217 31.6981Z" fill="#7E7E7E"/>
<path d="M106.284 42.601V24.2513H109.847V26.5673C110.702 24.9639 112.626 23.9307 114.835 23.9307C117.294 23.9307 119.289 25.0708 120.501 26.7811C121.427 25.5697 123.244 23.9307 126.38 23.9307C130.62 23.9307 133.613 26.9949 133.613 30.843V42.601H130.05V31.6981C130.05 28.9546 128.304 27.2799 125.917 27.2799C123.458 27.2799 121.712 29.0971 121.712 31.6981V42.601H118.149V31.6981C118.149 28.9546 116.439 27.2799 114.016 27.2799C111.557 27.2799 109.847 29.0971 109.847 31.6981V42.601H106.284Z" fill="#7E7E7E"/>
<path d="M137.879 50.7604V24.2513H141.442V26.6029C142.618 25.0352 144.827 23.9307 147.571 23.9307C152.559 23.9307 156.514 27.4937 156.514 33.444C156.514 38.9667 152.63 42.9217 147.571 42.9217C144.827 42.9217 142.511 41.7459 141.442 40.1782V50.7604H137.879ZM141.371 33.444C141.371 36.7933 143.58 39.6081 147.143 39.6081C150.706 39.6081 152.915 36.8289 152.915 33.444C152.915 30.0235 150.706 27.2443 147.143 27.2443C143.58 27.2443 141.371 30.0591 141.371 33.444Z" fill="#7E7E7E"/>
<path d="M169.036 42.9217C163.406 42.9217 159.38 38.9311 159.38 33.444C159.38 27.9569 163.442 23.9307 169.036 23.9307C174.63 23.9307 178.692 27.9569 178.692 33.444C178.692 38.8955 174.665 42.9217 169.036 42.9217ZM162.979 33.444C162.979 37.0783 165.651 39.6437 169.036 39.6437C172.456 39.6437 175.093 37.0783 175.093 33.444C175.093 29.8097 172.456 27.2443 169.036 27.2443C165.615 27.2443 162.979 29.8097 162.979 33.444Z" fill="#7E7E7E"/>
</g>
<defs>
<clipPath id="clip0_2801_887">
<rect width="169.462" height="43.4518" fill="white" transform="translate(10.769 8.27417)"/>
</clipPath>
</defs>
</svg>

<svg xmlns="http://www.w3.org/2000/svg" width="191" height="60" fill="none" viewBox="0 0 191 60"><g fill="#7e7e7e" clip-path="url(#a)"><path fill-rule="evenodd" d="M19.46 8.274a8.69 8.69 0 0 0-8.691 8.69v26.072c0 4.8 3.89 8.69 8.69 8.69h26.072c4.799 0 8.69-3.89 8.69-8.69V16.965c0-4.8-3.891-8.69-8.69-8.69zm24.084 12.932 1.987-2.793H19.459l1.987 2.793h9.543l-.021 22.422 1.419 1.863 1.418-1.863.021-22.422zM27.659 38.897l2.364 2.794V22.137H22.11l1.655 2.328h3.905zm7.093 2.794 2.355-2.794V24.465h4.12l1.655-2.328h-8.13z" clip-rule="evenodd"/><path d="M73.77 42.601v-21.52h-7.98V17.66h19.703v3.42h-7.981v21.521zM93.816 42.922c-5.63 0-9.3-4.133-9.3-9.478 0-5.416 3.706-9.513 9.264-9.513 5.38 0 8.765 4.24 8.765 9.085v1.675h-14.43c.463 3.492 2.815 5.024 5.7 5.024 2.922 0 4.811-1.782 5.381-3.385l2.744 1.46c-.784 2.032-3.278 5.132-8.124 5.132m-5.594-11.224H98.84c-.036-2.28-1.96-4.632-5.096-4.632-2.707 0-4.917 1.604-5.522 4.632M106.284 42.601v-18.35h3.563v2.316c.855-1.603 2.779-2.636 4.988-2.636 2.459 0 4.454 1.14 5.666 2.85.926-1.211 2.743-2.85 5.879-2.85 4.24 0 7.233 3.064 7.233 6.912v11.758h-3.563V31.698c0-2.743-1.746-4.418-4.133-4.418-2.459 0-4.205 1.817-4.205 4.418v10.903h-3.563V31.698c0-2.743-1.71-4.418-4.133-4.418-2.459 0-4.169 1.817-4.169 4.418v10.903zM137.879 50.76V24.251h3.563v2.352c1.176-1.568 3.385-2.672 6.129-2.672 4.988 0 8.943 3.563 8.943 9.513 0 5.523-3.884 9.478-8.943 9.478-2.744 0-5.06-1.176-6.129-2.744V50.76zm3.492-17.316c0 3.35 2.209 6.164 5.772 6.164s5.772-2.78 5.772-6.164c0-3.42-2.209-6.2-5.772-6.2s-5.772 2.815-5.772 6.2M169.036 42.922c-5.63 0-9.656-3.99-9.656-9.478s4.062-9.513 9.656-9.513 9.656 4.026 9.656 9.513c0 5.451-4.027 9.478-9.656 9.478m-6.057-9.478c0 3.634 2.672 6.2 6.057 6.2 3.42 0 6.057-2.566 6.057-6.2s-2.637-6.2-6.057-6.2-6.057 2.566-6.057 6.2"/></g><defs><clipPath id="a"><path fill="#fff" d="M10.769 8.274h169.462v43.452H10.769z"/></clipPath></defs></svg>
